X: 3795
T: Björn's
R: polka
M: 2/4
K: Gmajor
|:B/c/|dB/c/ dB/c/|dB GB/c/|d/e/d/^c/ dg|f2 ff/g/|
af/g/ af/g/|af dd/e/|dc BA|1 d2- d:|2 Gg f=f||
|:e2 c2|Gg fe|d2 B2|Gg fg|
a2 f2|da ^ga|bc'/b/ ab/a/|gb ag|
e2 c2|Gg fe|d2 B2|Gg fe|
d2 c2|E2 F2|G>A GF|1 Gg f=f:|2 G2 G||

